X:124
T: GESTERN ABEND GING ICH AUS, GING WOHL IN DEN WALD HINAUS
N: Z0124
O: Europa, Mitteleuropa, Deutschland
R: Erzaehlung, lustige Romanze
M: 2/4
L: 1/8
K: G
DGGG | FAA2 | BBcA | AGG2
dBBG | GEE2 | cBAG | FED2
DGGG | FAA2 | BBcA | AGG2

